X: 629
T: the Belfast Lasses   #2
R: reel
%S: s:2 b:11(5+6)
B: Francis O'Neill: "The Dance Music of Ireland" (1907) #629
Z: Frank Nordberg - http://www.musicaviva.com
F: http://www.musicaviva.com/abc/tunes/ireland/oneill-1001/0629/oneill-1001-0629-1.abc
M: C|
L: 1/8
K: G
"^A"\
|: G2(BG) dGBG | EAAG FAFD | G2(BG) dGBG |\
[1 EcAF G2G2 :|[2 egfa g2g2 ||
"^B"\
|: gddc BdBG | FAAG FAFD |\
[1 gddc BdBG | EFAF G2G2 :|\
[2 gdec BdBG | egfa g2g2 |]
